X: 2063
T: Persimmon Pudding
R: hornpipe
C: Rick Gagne
N: 1993 on bouzouki
M: 4/4
Q: 1/4=160
K: D
A | "D"defd "G"g2fe | "D"(3fga gf "A"ecA2 | "Bm"(3fga gf "A"edce |\
"G"dAFA "A"GABc | 
"D"dAFA "A"EA~A2 | "Bm"FGAF "A"EAAe | "D"(3fga gf "A"edce |1 "D"dAFA D2F :|\
[2 "D"dAFA d2 ||
fg | "D"a2~a2 agfe | defg afdA | "G"Bdge "D"fdAd | "G"Bdfd "A"ecA2 | 
"G"g2~g2 "Em"gfeg | "Bm"fd~d2 "G"Bcdc | "Em"Bdge "D"fdAd |1 "A"Acec "D"de :|\
[2 "A"Acec "D"d2F ||
